src/svg/uf1ac-fax.svg

<!-- Generated by IcoMoon.io -->
<svg version="1.1" xmlns="http://www.w3.org/2000/svg" width="32" height="32" viewBox="0 0 32 32">
<path d="M5.143 6.857c1.571 0 2.857 1.286 2.857 2.857v19.429c0 1.571-1.286 2.857-2.857 2.857h-2.286c-1.571 0-2.857-1.286-2.857-2.857v-19.429c0-1.571 1.286-2.857 2.857-2.857h2.286zM29.714 9.768c1.357 0.786 2.286 2.268 2.286 3.946v13.714c0 2.518-2.054 4.571-4.571 4.571h-15.429c-1.571 0-2.857-1.286-2.857-2.857v-27.429c0-0.946 0.768-1.714 1.714-1.714h12c0.946 0 2.268 0.554 2.929 1.214l2.714 2.714c0.661 0.661 1.214 1.982 1.214 2.929v2.911zM16.571 27.429v-2.286c0-0.321-0.25-0.571-0.571-0.571h-2.286c-0.321 0-0.571 0.25-0.571 0.571v2.286c0 0.321 0.25 0.571 0.571 0.571h2.286c0.321 0 0.571-0.25 0.571-0.571zM16.571 22.857v-2.286c0-0.321-0.25-0.571-0.571-0.571h-2.286c-0.321 0-0.571 0.25-0.571 0.571v2.286c0 0.321 0.25 0.571 0.571 0.571h2.286c0.321 0 0.571-0.25 0.571-0.571zM16.571 18.286v-2.286c0-0.321-0.25-0.571-0.571-0.571h-2.286c-0.321 0-0.571 0.25-0.571 0.571v2.286c0 0.321 0.25 0.571 0.571 0.571h2.286c0.321 0 0.571-0.25 0.571-0.571zM21.143 27.429v-2.286c0-0.321-0.25-0.571-0.571-0.571h-2.286c-0.321 0-0.571 0.25-0.571 0.571v2.286c0 0.321 0.25 0.571 0.571 0.571h2.286c0.321 0 0.571-0.25 0.571-0.571zM21.143 22.857v-2.286c0-0.321-0.25-0.571-0.571-0.571h-2.286c-0.321 0-0.571 0.25-0.571 0.571v2.286c0 0.321 0.25 0.571 0.571 0.571h2.286c0.321 0 0.571-0.25 0.571-0.571zM21.143 18.286v-2.286c0-0.321-0.25-0.571-0.571-0.571h-2.286c-0.321 0-0.571 0.25-0.571 0.571v2.286c0 0.321 0.25 0.571 0.571 0.571h2.286c0.321 0 0.571-0.25 0.571-0.571zM25.714 27.429v-2.286c0-0.321-0.25-0.571-0.571-0.571h-2.286c-0.321 0-0.571 0.25-0.571 0.571v2.286c0 0.321 0.25 0.571 0.571 0.571h2.286c0.321 0 0.571-0.25 0.571-0.571zM25.714 22.857v-2.286c0-0.321-0.25-0.571-0.571-0.571h-2.286c-0.321 0-0.571 0.25-0.571 0.571v2.286c0 0.321 0.25 0.571 0.571 0.571h2.286c0.321 0 0.571-0.25 0.571-0.571zM25.714 18.286v-2.286c0-0.321-0.25-0.571-0.571-0.571h-2.286c-0.321 0-0.571 0.25-0.571 0.571v2.286c0 0.321 0.25 0.571 0.571 0.571h2.286c0.321 0 0.571-0.25 0.571-0.571zM27.429 11.429v-4.571h-2.857c-0.946 0-1.714-0.768-1.714-1.714v-2.857h-11.429v9.143h16z"></path>
</svg>

<svg xmlns="http://www.w3.org/2000/svg" width="32" height="32"><path d="M5.143 6.857A2.866 2.866 0 0 1 8 9.714v19.429A2.866 2.866 0 0 1 5.143 32H2.857A2.866 2.866 0 0 1 0 29.143V9.714a2.866 2.866 0 0 1 2.857-2.857h2.286zm24.571 2.911A4.579 4.579 0 0 1 32 13.714v13.714a4.58 4.58 0 0 1-4.571 4.571H12a2.866 2.866 0 0 1-2.857-2.857V1.713c0-.946.768-1.714 1.714-1.714h12c.946 0 2.268.554 2.929 1.214L28.5 3.927c.661.661 1.214 1.982 1.214 2.929v2.911zM16.571 27.429v-2.286a.564.564 0 0 0-.571-.571h-2.286a.564.564 0 0 0-.571.571v2.286c0 .321.25.571.571.571H16c.321 0 .571-.25.571-.571zm0-4.572v-2.286A.564.564 0 0 0 16 20h-2.286a.564.564 0 0 0-.571.571v2.286c0 .321.25.571.571.571H16c.321 0 .571-.25.571-.571zm0-4.571V16a.564.564 0 0 0-.571-.571h-2.286a.564.564 0 0 0-.571.571v2.286c0 .321.25.571.571.571H16c.321 0 .571-.25.571-.571zm4.572 9.143v-2.286a.564.564 0 0 0-.571-.571h-2.286a.564.564 0 0 0-.571.571v2.286c0 .321.25.571.571.571h2.286c.321 0 .571-.25.571-.571zm0-4.572v-2.286a.564.564 0 0 0-.571-.571h-2.286a.564.564 0 0 0-.571.571v2.286c0 .321.25.571.571.571h2.286c.321 0 .571-.25.571-.571zm0-4.571V16a.564.564 0 0 0-.571-.571h-2.286a.564.564 0 0 0-.571.571v2.286c0 .321.25.571.571.571h2.286c.321 0 .571-.25.571-.571zm4.571 9.143v-2.286a.564.564 0 0 0-.571-.571h-2.286a.564.564 0 0 0-.571.571v2.286c0 .321.25.571.571.571h2.286c.321 0 .571-.25.571-.571zm0-4.572v-2.286a.564.564 0 0 0-.571-.571h-2.286a.564.564 0 0 0-.571.571v2.286c0 .321.25.571.571.571h2.286c.321 0 .571-.25.571-.571zm0-4.571V16a.564.564 0 0 0-.571-.571h-2.286a.564.564 0 0 0-.571.571v2.286c0 .321.25.571.571.571h2.286c.321 0 .571-.25.571-.571zm1.715-6.857V6.858h-2.857a1.715 1.715 0 0 1-1.714-1.714V2.287H11.429v9.143h16z"/></svg>
